static/images/avatar.svg

<svg width="264px" height="280px" viewBox="0 0 264 280" version="1.1" xmlns="http://www.w3.org/2000/svg" xmlns:xlink="http://www.w3.org/1999/xlink"><desc>Created with getavataaars.com</desc><defs><circle id="path-1" cx="120" cy="120" r="120"></circle><path d="M12,160 C12,226.27417 65.72583,280 132,280 C198.27417,280 252,226.27417 252,160 L264,160 L264,-1.42108547e-14 L-3.19744231e-14,-1.42108547e-14 L-3.19744231e-14,160 L12,160 Z" id="path-3"></path><path d="M124,144.610951 L124,163 L128,163 L128,163 C167.764502,163 200,195.235498 200,235 L200,244 L0,244 L0,235 C-4.86974701e-15,195.235498 32.235498,163 72,163 L72,163 L76,163 L76,144.610951 C58.7626345,136.422372 46.3722246,119.687011 44.3051388,99.8812385 C38.4803105,99.0577866 34,94.0521096 34,88 L34,74 C34,68.0540074 38.3245733,63.1180731 44,62.1659169 L44,56 L44,56 C44,25.072054 69.072054,5.68137151e-15 100,0 L100,0 L100,0 C130.927946,-5.68137151e-15 156,25.072054 156,56 L156,62.1659169 C161.675427,63.1180731 166,68.0540074 166,74 L166,88 C166,94.0521096 161.51969,99.0577866 155.694861,99.8812385 C153.627775,119.687011 141.237365,136.422372 124,144.610951 Z" id="path-5"></path></defs><g id="Avataaar" stroke="none" stroke-width="1" fill="none" fill-rule="evenodd"><g transform="translate(-825.000000, -1100.000000)" id="Avataaar/Circle"><g transform="translate(825.000000, 1100.000000)"><g id="Circle" stroke-width="1" fill-rule="evenodd" transform="translate(12.000000, 40.000000)"><mask id="mask-2" fill="white"><use xlink:href="#path-1"></use></mask><use id="Circle-Background" fill="#E6E6E6" xlink:href="#path-1"></use><g id="Color/Palette/Blue-01" mask="url(#mask-2)" fill="#2c97de"><rect id="🖍Color" x="0" y="0" width="240" height="240"></rect></g></g><mask id="mask-4" fill="white"><use xlink:href="#path-3"></use></mask><g id="Mask"></g><g id="Avataaar" stroke-width="1" fill-rule="evenodd" mask="url(#mask-4)"><g id="Body" transform="translate(32.000000, 36.000000)"><mask id="mask-6" fill="white"><use xlink:href="#path-5"></use></mask><use fill="#D0C6AC" xlink:href="#path-5"></use><g id="Skin/👶🏽-03-Brown" mask="url(#mask-6)" fill="#EDB98A"><g transform="translate(-32.000000, 0.000000)" id="Color"><rect x="0" y="0" width="264" height="244"></rect></g></g><path d="M156,79 L156,102 C156,132.927946 130.927946,158 100,158 C69.072054,158 44,132.927946 44,102 L44,79 L44,94 C44,124.927946 69.072054,150 100,150 C130.927946,150 156,124.927946 156,94 L156,79 Z" id="Neck-Shadow" fill-opacity="0.100000001" fill="#000000" mask="url(#mask-6)"></path></g><g id="Clothing/Hoodie" transform="translate(0.000000, 170.000000)"><defs><path d="M108,13.0708856 C90.0813006,15.075938 76.2798424,20.5518341 76.004203,34.6449676 C50.1464329,45.5680933 32,71.1646257 32,100.999485 L32,100.999485 L32,110 L232,110 L232,100.999485 C232,71.1646257 213.853567,45.5680933 187.995797,34.6449832 C187.720158,20.5518341 173.918699,15.075938 156,13.0708856 L156,32 L156,32 C156,45.254834 145.254834,56 132,56 L132,56 C118.745166,56 108,45.254834 108,32 L108,13.0708856 Z" id="react-path-165"></path></defs><mask id="react-mask-166" fill="white"><use xlink:href="#react-path-165"></use></mask><use id="Hoodie" fill="#B7C1DB" fill-rule="evenodd" xlink:href="#react-path-165"></use><g id="Color/Palette/Gray-01" mask="url(#react-mask-166)" fill-rule="evenodd" fill="#262E33"><rect id="🖍Color" x="0" y="0" width="264" height="110"></rect></g><path d="M102,61.7390531 L102,110 L95,110 L95,58.1502625 C97.2037542,59.4600576 99.5467694,60.6607878 102,61.7390531 Z M169,58.1502625 L169,98.5 C169,100.432997 167.432997,102 165.5,102 C163.567003,102 162,100.432997 162,98.5 L162,61.7390531 C164.453231,60.6607878 166.796246,59.4600576 169,58.1502625 Z" id="Straps" fill="#F4F4F4" fill-rule="evenodd" mask="url(#react-mask-166)"></path><path d="M90.9601329,12.7243537 C75.9093095,15.5711782 65.5,21.2428847 65.5,32.3076923 C65.5,52.0200095 98.5376807,68 132,68 C165.462319,68 198.5,52.0200095 198.5,32.3076923 C198.5,21.2428847 188.09069,15.5711782 173.039867,12.7243537 C182.124921,16.0744598 188,21.7060546 188,31.0769231 C188,51.4689754 160.178795,68 132,68 C103.821205,68 76,51.4689754 76,31.0769231 C76,21.7060546 81.8750795,16.0744598 90.9601329,12.7243537 Z" id="Shadow" fill-opacity="0.16" fill="#000000" fill-rule="evenodd" mask="url(#react-mask-166)"></path></g><g id="Face" transform="translate(76.000000, 82.000000)" fill="#000000"><g id="Mouth/Smile" transform="translate(2.000000, 52.000000)"><defs><path d="M35.117844,15.1280772 C36.1757121,24.6198025 44.2259873,32 54,32 C63.8042055,32 71.8740075,24.574136 72.8917593,15.0400546 C72.9736685,14.272746 72.1167429,13 71.042767,13 C56.1487536,13 44.7379213,13 37.0868244,13 C36.0066168,13 35.0120058,14.1784435 35.117844,15.1280772 Z" id="react-path-185"></path></defs><mask id="react-mask-186" fill="white"><use xlink:href="#react-path-185"></use></mask><use id="Mouth" fill-opacity="0.699999988" fill="#000000" fill-rule="evenodd" xlink:href="#react-path-185"></use><rect id="Teeth" fill="#FFFFFF" fill-rule="evenodd" mask="url(#react-mask-186)" x="39" y="2" width="31" height="16" rx="5"></rect><g id="Tongue" stroke-width="1" fill-rule="evenodd" mask="url(#react-mask-186)" fill="#FF4F6D"><g transform="translate(38.000000, 24.000000)"><circle cx="11" cy="11" r="11"></circle><circle cx="21" cy="11" r="11"></circle></g></g></g><g id="Nose/Default" transform="translate(28.000000, 40.000000)" fill-opacity="0.16"><path d="M16,8 C16,12.418278 21.372583,16 28,16 L28,16 C34.627417,16 40,12.418278 40,8" id="Nose"></path></g><g id="Eyes/Wink-😉" transform="translate(0.000000, 8.000000)" fill-opacity="0.599999964"><circle id="Eye" cx="30" cy="22" r="6"></circle><path d="M70.4123979,24.204889 C72.2589064,20.4060854 76.4166529,17.7575774 81.2498107,17.7575774 C86.065907,17.7575774 90.2113521,20.3874194 92.0675822,24.1647016 C92.618991,25.2867751 91.8343342,26.2050591 91.0428374,25.5246002 C88.5917368,23.4173607 85.1109468,22.1013658 81.2498107,22.1013658 C77.5094365,22.1013658 74.1259889,23.3363293 71.6897696,25.3292186 C70.7990233,26.0578718 69.8723316,25.3159619 70.4123979,24.204889 Z" id="Winky-Wink" transform="translate(81.252230, 21.757577) rotate(-4.000000) translate(-81.252230, -21.757577) "></path></g><g id="Eyebrow/Natural/Flat-Natural" fill-opacity="0.599999964"><path d="M38.5686071,10.7022978 C33.5865557,11.2384494 28.6553385,11.1338998 23.6562444,11.1010606 C19.8231061,11.0762636 15.91974,10.6892291 12.3246118,12.5091287 C11.6361455,12.8572921 7.8767609,14.9449324 8.00311195,16.0108688 C8.10389896,16.8633498 12.0128479,18.0636592 12.7165939,18.2838164 C16.4280826,19.4452548 19.9241869,18.9282036 23.6870976,18.5703225 C28.3024371,18.1316834 32.9139567,18.1745756 37.5322346,17.8739956 C40.6422336,17.6719334 45.4224171,16.9769469 46.8293214,13.1484895 C47.2530382,11.9954284 46.8152171,9.73353891 46.3074622,8.50642195 C46.1050066,8.01751871 45.5634602,7.84963624 45.1688335,8.14921095 C43.7560524,9.22218432 40.9851444,10.4425994 38.5686071,10.7022978" id="Fill-10" transform="translate(27.500000, 13.500000) rotate(2.000000) translate(-27.500000, -13.500000) "></path><path d="M95.5686071,10.7022978 C90.5865557,11.2384494 85.6553385,11.1338998 80.6562444,11.1010606 C76.8231061,11.0762636 72.91974,10.6892291 69.3246118,12.5091287 C68.6361455,12.8572921 64.8767609,14.9449324 65.003112,16.0108688 C65.103899,16.8633498 69.0128479,18.0636592 69.7165939,18.2838164 C73.4280826,19.4452548 76.9241869,18.9282036 80.6870976,18.5703225 C85.3024371,18.1316834 89.9139567,18.1745756 94.5322346,17.8739956 C97.6422336,17.6719334 102.422417,16.9769469 103.829321,13.1484895 C104.253038,11.9954284 103.815217,9.73353891 103.307462,8.50642195 C103.105007,8.01751871 102.56346,7.84963624 102.168833,8.14921095 C100.756052,9.22218432 97.9851444,10.4425994 95.5686071,10.7022978" id="Fill-10" transform="translate(84.500000, 13.500000) scale(-1, 1) rotate(2.000000) translate(-84.500000, -13.500000) "></path></g></g><g id="Top" stroke-width="1" fill-rule="evenodd"><defs><rect id="react-path-137" x="0" y="0" width="264" height="280"></rect><path d="M183.679824,38.9488198 C189.086072,33.9985622 190.387393,23.9615454 187.317704,17.4493246 C183.549263,9.45385312 175.901319,8.45217737 168.572342,11.9686703 C161.664469,15.2835661 155.515175,16.3878671 147.950196,14.7817319 C140.691624,13.2406923 133.805566,10.5226172 126.303388,10.0762471 C113.978028,9.34292483 102.003367,13.914565 93.6031232,23.1292512 C92.0003538,24.8871655 90.7089493,26.8971594 89.4882796,28.9343872 C88.5115454,30.5644351 87.4105298,32.3133822 86.9950459,34.1921885 C86.7973853,35.0855929 87.165272,37.2898774 86.7203704,38.0218712 C86.2391099,38.8123183 84.4244668,39.5373375 83.6510124,40.1238625 C82.0842713,41.3125222 80.7267597,42.6539573 79.4713836,44.1710842 C76.8052796,47.3926541 75.3376994,50.7577001 74.1034777,54.7428152 C70.0005333,67.9877849 69.6528094,83.7412616 74.9569218,96.7467724 C75.6639385,98.4811062 77.8550622,102.098564 79.1431613,98.3847912 C79.3976741,97.6508047 78.8086588,95.1907873 78.8099809,94.4501584 C78.8146084,91.7300906 80.3160587,73.7213568 86.857084,63.6330196 C88.9862338,60.3491948 98.8298903,48.0522456 100.840541,47.9536058 C101.9058,49.6464245 112.720532,60.4624529 140.783385,59.1948919 C153.445253,58.6229725 163.18265,52.9341181 165.520833,50.4680909 C166.549375,56.0008881 178.51323,64.2839965 180.33625,67.6921976 C185.602529,77.5376948 186.770677,97.9957204 188.780988,97.9573368 C190.791299,97.9189532 192.234429,92.7197798 192.647929,91.7270713 C195.719601,84.351669 196.242509,75.0948338 195.914948,67.1684434 C195.487565,56.9663626 191.276535,45.9419513 183.679824,38.9488198 Z" id="react-path-136"></path><filter x="-0.8%" y="-2.0%" width="101.5%" height="108.0%" filterUnits="objectBoundingBox" id="react-filter-133"><feOffset dx="0" dy="2" in="SourceAlpha" result="shadowOffsetOuter1"></feOffset><feColorMatrix values="0 0 0 0 0   0 0 0 0 0   0 0 0 0 0  0 0 0 0.16 0" type="matrix" in="shadowOffsetOuter1" result="shadowMatrixOuter1"></feColorMatrix><feMerge><feMergeNode in="shadowMatrixOuter1"></feMergeNode><feMergeNode in="SourceGraphic"></feMergeNode></feMerge></filter></defs><mask id="react-mask-135" fill="white"><use xlink:href="#react-path-137"></use></mask><g id="Mask"></g><g id="Top/Short-Hair/Short-Waved" mask="url(#react-mask-135)"><g transform="translate(-1.000000, 0.000000)"><mask id="react-mask-134" fill="white"><use xlink:href="#react-path-136"></use></mask><use id="Short-Hair" stroke="none" fill="#28354B" fill-rule="evenodd" xlink:href="#react-path-136"></use><g id="Skin/👶🏽-03-Brown" mask="url(#react-mask-134)" fill="#2C1B18"><g transform="translate(0.000000, 0.000000) " id="Color"><rect x="0" y="0" width="264" height="280"></rect></g></g></g></g></g></g></g></g></g></svg>

<svg xmlns="http://www.w3.org/2000/svg" xmlns:xlink="http://www.w3.org/1999/xlink" width="264" height="280"><defs><path d="M124 144.611V163h4c39.765 0 72 32.235 72 72v9H0v-9c0-39.765 32.235-72 72-72h4v-18.389c-17.237-8.189-29.628-24.924-31.695-44.73C38.48 99.058 34 94.052 34 88V74c0-5.946 4.325-10.882 10-11.834V56c0-30.928 25.072-56 56-56s56 25.072 56 56v6.166c5.675.952 10 5.888 10 11.834v14c0 6.052-4.48 11.058-10.305 11.881-2.067 19.806-14.458 36.541-31.695 44.73Z" id="a"/></defs><g fill="none" fill-rule="evenodd"><g mask="url(#react-mask-5)"><g transform="translate(32 36)"><mask id="b" fill="#fff"><use xlink:href="#a"/></mask><use fill="#D0C6AC" xlink:href="#a"/><g mask="url(#b)" fill="#EDB98A"><path d="M0 0h264v280H0z"/></g><path d="M156 79v23c0 30.928-25.072 56-56 56s-56-25.072-56-56V79v15c0 30.928 25.072 56 56 56s56-25.072 56-56V79Z" fill-opacity=".1" fill="#000" mask="url(#b)"/></g><g transform="translate(0 170)"><defs><path d="M108 13.07c-17.919 2.006-31.72 7.482-31.996 21.575C50.146 45.568 32 71.165 32 100.999V110h200v-9c0-29.835-18.146-55.432-44.004-66.355-.276-14.093-14.077-19.57-31.996-21.574V32c0 13.255-10.745 24-24 24s-24-10.745-24-24V13.07Z" id="c"/></defs><mask id="d" fill="#fff"><use xlink:href="#c"/></mask><use fill="#B7C1DB" xlink:href="#c"/><g mask="url(#d)" fill="#929598"><path d="M0 0h264v110H0z"/></g><path d="M102 61.74V110h-7V58.15a64.54 64.54 0 0 0 7 3.59Zm67-3.59V98.5a3.5 3.5 0 1 1-7 0V61.74a64.54 64.54 0 0 0 7-3.59Z" fill="#F4F4F4" mask="url(#d)"/><path d="M90.96 12.724C75.91 15.571 65.5 21.243 65.5 32.308 65.5 52.02 98.538 68 132 68s66.5-15.98 66.5-35.692c0-11.065-10.41-16.737-25.46-19.584 9.085 3.35 14.96 8.982 14.96 18.353C188 51.469 160.179 68 132 68S76 51.469 76 31.077c0-9.37 5.875-15.003 14.96-18.353Z" fill-opacity=".16" fill="#000" mask="url(#d)"/></g><g fill="#000"><g transform="translate(78 134)"><defs><path d="M35.118 15.128C36.176 24.62 44.226 32 54 32c9.804 0 17.874-7.426 18.892-16.96.082-.767-.775-2.04-1.85-2.04H37.088c-1.08 0-2.075 1.178-1.97 2.128Z" id="e"/></defs><mask id="f" fill="#fff"><use xlink:href="#e"/></mask><use fill-opacity=".7" xlink:href="#e"/><rect fill="#FFF" mask="url(#f)" x="39" y="2" width="31" height="16" rx="5"/><g mask="url(#f)" fill="#FF4F6D"><g transform="translate(38 24)"><circle cx="11" cy="11" r="11"/><circle cx="21" cy="11" r="11"/></g></g></g><path d="M120 130c0 4.418 5.373 8 12 8s12-3.582 12-8" fill-opacity=".16"/><g transform="translate(76 90)" fill-opacity=".6"><circle cx="30" cy="22" r="6"/><path d="M70.61 24.955c1.577-3.918 5.54-6.85 10.36-7.188 4.805-.335 9.124 1.999 11.24 5.637.627 1.081-.091 2.052-.928 1.428-2.592-1.93-6.156-3-10.008-2.731-3.731.26-7.02 1.729-9.312 3.887-.838.789-1.814.113-1.352-1.033Z"/></g><g fill-opacity=".6"><path d="M114.66 93.09c-4.998.362-9.923.086-14.918-.122-3.83-.158-7.717-.681-11.374 1.012-.7.324-4.53 2.28-4.44 3.349.07.855 3.935 2.191 4.63 2.436 3.67 1.29 7.181.896 10.954.67 4.628-.278 9.236-.074 13.861-.214 3.116-.093 7.917-.62 9.457-4.398.464-1.137.105-3.413-.36-4.657-.185-.496-.72-.683-1.125-.397-1.45 1.023-4.261 2.146-6.685 2.321M149.34 93.09c4.998.362 9.923.086 14.918-.122 3.83-.158 7.717-.681 11.374 1.012.7.324 4.53 2.28 4.44 3.349-.07.855-3.935 2.191-4.63 2.436-3.67 1.29-7.181.896-10.954.67-4.628-.278-9.236-.074-13.861-.214-3.116-.093-7.917-.62-9.457-4.398-.464-1.137-.105-3.413.36-4.657.185-.496.72-.683 1.125-.397 1.45 1.023 4.261 2.146 6.685 2.321"/></g></g><defs><path id="g" d="M0 0h264v280H0z"/><path d="M183.68 38.949c5.406-4.95 6.707-14.987 3.638-21.5-3.769-7.995-11.417-8.997-18.746-5.48-6.908 3.315-13.057 4.419-20.622 2.813-7.258-1.541-14.144-4.26-21.647-4.706-12.325-.733-24.3 3.839-32.7 13.053-1.603 1.758-2.894 3.768-4.115 5.805-.976 1.63-2.077 3.38-2.493 5.258-.198.894.17 3.098-.275 3.83-.48.79-2.296 1.515-3.069 2.102-1.567 1.189-2.924 2.53-4.18 4.047-2.666 3.222-4.133 6.587-5.368 10.572-4.102 13.245-4.45 28.998.854 42.004.707 1.734 2.898 5.352 4.186 1.638.255-.734-.334-3.194-.333-3.935.005-2.72 1.506-20.729 8.047-30.817 2.13-3.284 11.973-15.58 13.984-15.68 1.065 1.693 11.88 12.51 39.942 11.242 12.662-.572 22.4-6.26 24.738-8.727 1.028 5.533 12.992 13.816 14.815 17.224 5.267 9.846 6.435 30.304 8.445 30.265 2.01-.038 3.453-5.237 3.867-6.23 3.072-7.375 3.595-16.632 3.267-24.559-.427-10.202-4.638-21.226-12.235-28.22Z" id="i"/></defs><mask id="h" fill="#fff"><use xlink:href="#g"/></mask><g mask="url(#h)"><g transform="translate(-1)"><mask id="j" fill="#fff"><use xlink:href="#i"/></mask><use fill="#28354B" xlink:href="#i"/><g mask="url(#j)" fill="#2C1B18"><path d="M0 0h264v280H0z"/></g></g></g></g></g></svg>
